X: 1
T: Hen's March, The
M: 6/8
L: 1/8
R: jig
K: Dmaj
eaa a2 a | g2 e fdd | eaa afd | e3 e2 d | eaa a2 a | g2 e fdd | edB ABd | e3 e2 d |
eaa a2 a | g2 e fdd | eaa afd | e3 g2 e | dBB ABB | GBB ABB | AAA ABd | e3 e3 |
